X:1
T:Preliminary Art Form
T:Preliminary Art Form
T:C418
C:C418
%%score { 1 | 2 } { 3 | 4 } 5
L:1/8
Q:1/4=104
M:4/4
K:C
V:1 treble nm="Piano #1" snm="Pno #1."
V:2 treble 
V:3 treble nm="Piano #2" snm="Pno. #2"
V:4 bass 
V:5 treble nm="Piano #3" snm="Pno. 3"
V:1
"^\n\n" z8 | z8 | z8 | z8 | z8 | z8 | z8 | z8 | z8 | z8 | z2 a2 g4 | b2 d'2 g2 g'2 | e'8 | z8 | %14
 z2 a2 g4 | b2 d'2 g2 g'2 | e'6 b'2- | b'4 a'4 | z2 a2 g4 | b2 d'2 g2 g'2 | e'6 b'2- | b'4 a'4 | %22
 z2 a2 g4 | b2 d'2 g2 g'2 | e'6 z2 | z8 | z2 a2 g4 | b2 d'2 g2 g'2 | e'6 z2 | z8 | z2 a2 g4 | %31
 b2 d'2 g2 g'2 | e'6 b'2- | b'4 a'4 | b4 e4 | g4 c'2 g'2 | e'6 b'2- | b'4 a'4 | z8 | z8 | z8 | z8 | %42
 .[cg].[cg].[cg].[cg] .[cg].[cg].[cg].[cg] | .[cg].[cg].[cg].[cg] .[cg].[cg].[cg].[cg] | %44
 .[cg].[cg].[cg].[cg] .[cg].[cg].[cg].[cg] | .[cg].[cg].[cg].[cg] .[cg].[cg].[cg].[cg] | %46
 .[eb].[eb].[eb].[eb] .[eb].[eb].[eb].[eb] | .[eb].[eb].[eb].[eb] .[eb].[eb].[eb].[eb] | %48
 .[eb].[eb].[eb].[eb] .[eb].[eb].[eb].[eb] | .[eb].[eb].[eb].[eb] .[eb].[eb].[eb].[eb] | %50
 .[fc'].[fc'].[fc'].[fc'] .[fc'].[fc'].[fc'].[fc'] | %51
 .[fc'].[fc'].[fc'].[fc'] .[fc'].[fc'].[fc'].[fc'] | %52
 .[fc'].[fc'].[fc'].[fc'] .[fc'].[fc'].[fc'].[fc'] | %53
 .[fc'].[fc'].[fc'].[fc'] .[fc'].[fc'].[fc'].[fc'] | .[eb].[eb].[eb].[eb] .[eb].[eb].[eb].[eb] | %55
 .[eb].[eb].[eb].[eb] .[eb].[eb].[eb].[eb] | .[eb].[eb].[eb].[eb] .[eb].[eb].[eb].[eb] | %57
 .[eb].[eb].[eb].[eb] .[eb].[eb].[eb].[eb] | .[cg].[cg].[cg].[cg] .[cg].[cg].[cg].[cg] | %59
 .[cg].[cg].[cg].[cg] .[cg].[cg].[cg].[cg] | .[cg].[cg].[cg].[cg] .[cg].[cg].[cg].[cg] | %61
 .[cg].[cg].[cg].[cg] .[cg].[cg].[cg].[cg] | .[eb].[eb].[eb].[eb] .[eb].[eb].[eb].[eb] | %63
 .[eb].[eb].[eb].[eb] .[eb].[eb].[eb].[eb] | .[eb].[eb].[eb].[eb] .[eb].[eb].[eb].[eb] | %65
 .[ec'].[ec'].[ec'].[ec'] .[eb].[eb].[eb].[eb] | %66
 .[fc'].[fc'].[fc'].[fc'] .[fc'].[fc'].[fc'].[fc'] | %67
 .[fc'].[fc'].[fc'].[fc'] .[fc'].[fc'].[fc'].[fc'] | %68
 .[fc'].[fc'].[fd'].[fc'] .[fb].[fc'].[fg'].[fc'] | %69
 .[fe'].[fc'].[fc'].[fc'] .[fd'].[fc'].[fc'].[fc'] | .[eb].[eb].[eb].[eb] .[eb].[eb].[eb].[eb] | %71
 .[eb].[eb].[eb].[eb] .[eb].[eb].[eb].[eb] | .[eb].[eb].[eb].[eb] .[eb].[eb].[eb].[eb] | %73
 .[eb].[eb].[eb].[eb] .[eb].[eb].[eb].[eb] | .[be'].[be'].[be'].[be'] .[be'].[be'].[be'].[be'] | %75
 .[be'].[be'].[be'].[be'] .[be'].[be'].[be'].[be'] | %76
 .[be'].[be'].[be'].[be'] .[be'].[be'].[be'].[be'] | %77
 .[be'].[be'].[be'].[be'] .[be'].[be'].[be'].[be'] | .[be']8 |] %79
V:2
 .G.G.G.G .G.G.G.G | .G.G.G.G .G.G.G.G | .G.G.G.G .G.G.G.G | %3
 .[CG].[CG].[CG].[CG] .[CG].[CG].[CG].[CG] | .[CEG].[CEG].[CEG].[CEG] .[CEG].[CEG].[CEG].[CEG] | %5
 .[CEGB].[CEGB].[CEGB].[CEGB] .[CEGB].[CEGB].[CEGB].[CEGB] | %6
 .[CEGB].[CEGB].[CEGB].[CEGB] .[CEGB].[CEGB].[CEGB].[CEGB] | %7
 .[CEGB].[CEGB].[CEGB].[CEGB] .[CEGB].[CEGB].[CEGB].[CEGB] | %8
 .[EGB].[EGB].[EGB].[EGB] .[EGB].[EGB].[EGB].[EGB] | %9
 .[EGB].[EGB].[EGB].[EGB] .[EGB].[EGB].[EGB].[EGB] | %10
 .[EGAB].[EGAB].[EGAB].[EGAB] .[EGAB].[EGAB].[EGAB].[EGAB] | %11
 .[EGAB].[EGAB].[EGAB].[EGAB] .[EGAB].[EGAB].[EGAB].[EGAB] | %12
 .[DEGB].[DEGB].[DEGB].[DEGB] .[DEGB].[DEGB].[DEGB].[DEGB] | %13
 .[DEGB].[DEGB].[DEGB].[DEGB] .[DEGB].[DEGB].[DEGB].[DEGB] | %14
 .[EGAc].[EGAc].[EGAc].[EGAc] .[EGAc].[EGAc].[EGAc].[EGAc] | %15
 .[EGAc].[EGAc].[EGAc].[EGAc] .[EGAc].[EGAc].[EGAc].[EGAc] | %16
 .[DGA].[DGA].[DGA].[DGA] .[DGA].[DGA].[DGA].[DGA] | %17
 .[EGAB].[EGAB].[EGAB].[EGAB] .[EGAB].[EGAB].[EGAB].[EGAB] | %18
 .[EGAB].[EGAB].[EGAB].[EGAB] .[EGAB].[EGAB].[EGAB].[EGAB] | %19
 .[EGAB].[EGAB].[EGAB].[EGAB] .[EGAB].[EGAB].[EGAB].[EGAB] | %20
 .[EGB].[EGB].[EGB].[EGB] .[EGB].[EGB].[EGB].[EGB] | %21
 .[CEGB].[CEGB].[CEGB].[CEGB] .[CEGB].[CEGB].[CEGB].[CEGB] | %22
 .[CEGB].[CEGB].[CEGB].[CEGB] .[CEGB].[CEGB].[CEGB].[CEGB] | %23
 .[CEGB].[CEGB].[CEGB].[CEGB] .[CEGB].[CEGB].[CEGB].[CEGB] | %24
 .[CEGB].[CEGB].[CEGB].[CEGB] .[CEGB].[CEGB].[CEGB].[CEGB] | %25
 .[CEGB].[CEGB].[CEGB].[CEGB] .[CEGB].[CEGB].[CEGB].[CEGB] | %26
 .[EGAB].[EGAB].[EGAB].[EGAB] .[EGAB].[EGAB].[EGAB].[EGAB] | %27
 .[EGAB].[EGAB].[EGAB].[EGAB] .[EGAB].[EGAB].[EGAB].[EGAB] | %28
 .[DEGB].[DEGB].[DEGB].[DEGB] .[DEGB].[DEGB].[DEGB].[DEGB] | %29
 .[DEGB].[DEGB].[DEGB].[DEGB] .[DEGB].[DEGB].[DEGB].[DEGB] | %30
 .[EGAc].[EGAc].[EGAc].[EGAc] .[EGAc].[EGAc].[EGAc].[EGAc] | %31
 .[EGAc].[EGAc].[EGAc].[EGAc] .[EGAc].[EGAc].[EGAc].[EGAc] | %32
 .[DGA].[DGA].[DGA].[DGA] .[DGA].[DGA].[DGA].[DGA] | %33
 .[EGAB].[EGAB].[EGAB].[EGAB] .[EGAB].[EGAB].[EGAB].[EGAB] | %34
 .[EGAB].[EGAB].[EGAB].[EGAB] .[EGAB].[EGAB].[EGAB].[EGAB] | %35
 .[EGAB].[EGAB].[EGAB].[EGAB] .[EGAB].[EGAB].[EGAB].[EGAB] | %36
 .[EGB].[EGB].[EGB].[EGB] .[EGB].[EGB].[EGB].[EGB] | %37
 .[CEGB].[CEGB].[CEGB].[CEGB] .[CEGB].[CEGB].[CEGB].[CEGB] | %38
 .[CEGB].[CEGB].[CEGB].[CEGB] .[CEGB].[CEGB].[CEGB].[CEGB] | %39
 .[CEGB].[CEGB].[CEGB].[CEGB] .[CEGB].[CEGB].[CEGB].[CEGB] | %40
 .[CEGB].[CEGB].[CEGB].[CEGB] .[CEGB].[CEGB].[CEGB].[CEGB] | %41
 .[CEGB].[CEGB].[CEGB].[CEGB] .[CEGB].[CEGB].[CEGB].[CEGB] | %42
 .[EGBce].[EGBce].[EGBce].[EGBce] .[EGBce].[EGBce].[EGBce].[EGBce] | %43
 .[EGBce].[EGBce].[EGBce].[EGBce] .[EGBce].[EGBce].[EGBce].[EGBce] | %44
 .[EGBe].[EGBe].[EGBe].[EGBe] .[EGBe].[EGBe].[EGBe].[EGBe] | %45
 .[EGBe].[EGBe].[EGBe].[EGBe] .[EGBe].[EGBe].[EGBe].[EGBe] | %46
 .[EGABe].[EGABe].[EGABe].[EGABe] .[EGABe].[EGABe].[EGABe].[EGABe] | %47
 .[EGABe].[EGABe].[EGABe].[EGABe] .[EGABe].[EGABe].[EGABe].[EGABe] | %48
 .[DEGBd].[DEGBd].[DEGBd].[DEGBd] .[DEGBd].[DEGBd].[DEGBd].[DEGBd] | %49
 .[DEGBd].[DEGBd].[DEGBd].[DEGBd] .[DEGBd].[DEGBd].[DEGBd].[DEGBd] | %50
 .[EGAce].[EGAce].[EGAce].[EGAce] .[EGAce].[EGAce].[EGAce].[EGAce] | %51
 .[EGAce].[EGAce].[EGAce].[EGAce] .[EGAce].[EGAce].[EGAce].[EGAce] | %52
 .[DGAd].[DGAd].[DGAd].[DGAd] .[DGAd].[DGAd].[DGAd].[DGAd] | %53
 .[EGABe].[EGABe].[EGABe].[EGABe] .[EGABe].[EGABe].[EGABe].[EGABe] | %54
 .[EGABe].[EGABe].[EGABe].[EGABe] .[EGABe].[EGABe].[EGABe].[EGABe] | %55
 .[EGABe].[EGABe].[EGABe].[EGABe] .[EGABe].[EGABe].[EGABe].[EGABe] | %56
 .[EGBe].[EGBe].[EGBe].[EGBe] .[EGBe].[EGBe].[EGBe].[EGBe] | %57
 .[EGBce].[EGBce].[EGBce].[EGBce] .[EGBce].[EGBce].[EGBce].[EGBce] | %58
 .[EGBce].[EGBce].[EGBce].[EGBce] .[EGBce].[EGBce].[EGBce].[EGBce] | %59
 .[EGBce].[EGBce].[EGBce].[EGBce] .[EGBce].[EGBce].[EGBce].[EGBce] | %60
 .[EGBe].[EGBe].[EGBe].[EGBe] .[EGBe].[EGBe].[EGBe].[EGBe] | %61
 .[EGBe].[EGBe].[EGBe].[EGBe] .[EGBe].[EGBe].[EGBe].[EGBe] | %62
 .[EGABe].[EGABe].[EGABe].[EGABe] .[EGABe].[EGABe].[EGABe].[EGABe] | %63
 .[EGABe].[EGABe].[EGABe].[EGABe] .[EGABe].[EGABe].[EGABe].[EGABe] | %64
 .[DEGBd].[DEGBd].[DEGBd].[DEGBd] .[DEGBd].[DEGBd].[DEGBd].[DEGBd] | %65
 .[DEGBd].[DEGBd].[DEGBd].[DEGBd] .[DEGBd].[DEGBd].[DEGBd].[DEGBd] | %66
 .[EGAce].[EGAce].[EGAce].[EGAce] .[EGAce].[EGAce].[EGAce].[EGAce] | %67
 .[EGAce].[EGAce].[EGAce].[EGAce] .[EGAce].[EGAce].[EGAce].[EGAce] | %68
 .[DGAd].[DGAd].[DGAd].[DGAd] .[DGAd].[DGAd].[DGAd].[DGAd] | %69
 .[EGABe].[EGABe].[EGABe].[EGABe] .[EGABe].[EGABe].[EGABe].[EGABe] | %70
 .[EGABe].[EGABe].[EGABe].[EGABe] .[EGABe].[EGABe].[EGABe].[EGABe] | %71
 .[EGABe].[EGABe].[EGABe].[EGABe] .[EGABe].[EGABe].[EGABe].[EGABe] | %72
 .[EGBe].[EGBe].[EGBe].[EGBe] .[EGBe].[EGBe].[EGBe].[EGBe] | %73
 .[EGBce].[EGBce].[EGBce].[EGBce] .[EGBce].[EGBce].[EGBce].[EGBce] | z8 | z8 | z c2 d2 B2 g- | %77
 g .e3 z4 | z8 |] %79
V:3
 z2 z/ .b/ z z2 z z/ .c/ | z2 z/ .b/ z z z/ .c/ z2 | z/ .d.g/ z/ .b.g/ z/ .c.d/ z/ .g.c/ | %3
 z/ .d.g/ z/ .b.g/ z/ .c.d/ z/ .g.c/ | z/ .d.g/ z/ .b.g/ z/ .c.d/ z/ .g.c/ | %5
 z/ .d.g/ z/ .b.g/ z/ .c.d/ z/ .g.c/ | z/ .d.g/ z/ .b.g/ z/ .c.d/ z/ .g.c/ | %7
 z/ .d.g/ z/ .b.g/ z/ .c.d/ z/ .g.c/ | z/ .d.g/ z/ .b.g/ z/ .c.d/ z/ .g.c/ | %9
 z/ .d.g/ z/ .b.g/ z/ .c.d/ z/ .g.c/ | z/ .d.g/ z/ .b.g/ z/ .c.d/ z/ .g.c/ | %11
 z/ .d.g/ z/ .b.g/ z/ .c.d/ z/ .g.c/ | z/ .d.g/ z/ .b.g/ z/ .c.d/ z/ .g.c/ | %13
 z/ .d.g/ z/ .b.g/ z/ .c.d/ z/ .g.c/ | z/ .d.g/ z/ .b.g/ z/ .c.d/ z/ .g.c/ | %15
 z/ .d.g/ z/ .b.g/ z/ .c.d/ z/ .g.c/ | z/ .d.g/ z/ .b.g/ z/ .c.d/ z/ .g.c/ | %17
 z/ .d.g/ z/ .b.g/ z/ .c.d/ z/ .g.c/ | z/ .d.g/ z/ .b.g/ z/ .c.d/ z/ .g.c/ | %19
 z/ .d.g/ z/ .b.g/ z/ .c.d/ z/ .g.c/ | z/ .d.g/ z/ .b.g/ z/ .c.d/ z/ .g.c/ | %21
 z/ .d.g/ z/ .b.g/ z/ .c.d/ z/ .g.c/ | %22
 z/ .[dd'].[gg']/ z/ .[bb'].[gg']/ z/ .[cc'].[dd']/ z/ .[gg'].[cc']/ | %23
 z/ .[dd'].[gg']/ z/ .[bb'].[gg']/ z/ .[cc'].[dd']/ z/ .[gg'].[cc']/ | %24
 z/ .[dd'].[gg']/ z/ .[bb'].[gg']/ z/ .[cc'].[dd']/ z/ .[gg'].[cc']/ | %25
 z/ .[dd'].[gg']/ z/ .[bb'].[gg']/ z/ .[cc'].[dd']/ z/ .[gg'].[cc']/ | %26
 z/ .[dd'].[gg']/ z/ .[bb'].[gg']/ z/ .[cc'].[dd']/ z/ .[gg'].[cc']/ | %27
 z/ .[dd'].[gg']/ z/ .[bb'].[gg']/ z/ .[cc'].[dd']/ z/ .[gg'].[cc']/ | %28
 z/ .[dd'].[gg']/ z/ .[bb'].[gg']/ z/ .[cc'].[dd']/ z/ .[gg'].[cc']/ | %29
 z/ .[dd'].[gg']/ z/ .[bb'].[gg']/ z/ .[cc'].[dd']/ z/ .[gg'].[cc']/ | %30
 z/ .[dd'].[gg']/ z/ .[bb'].[gg']/ z/ .[cc'].[dd']/ z/ .[gg'].[cc']/ | %31
 z/ .[dd'].[gg']/ z/ .[bb'].[gg']/ z/ .[cc'].[dd']/ z/ .[gg'].[cc']/ | %32
 z/ .[dd'].[gg']/ z/ .[bb'].[gg']/ z/ .[cc'].[dd']/ z/ .[gg'].[cc']/ | %33
 z/ .[dd'].[gg']/ z/ .[bb'].[gg']/ z/ .[cc'].[dd']/ z/ .[gg'].[cc']/ | %34
 z/ .[dd'].[gg']/ z/ .[bb'].[gg']/ z/ .[cc'].[dd']/ z/ .[gg'].[cc']/ | %35
 z/ .[dd'].[gg']/ z/ .[bb'].[gg']/ z/ .[cc'].[dd']/ z/ .[gg'].[cc']/ | %36
 z/ .[dd'].[gg']/ z/ .[bb'].[gg']/ z/ .[cc'].[dd']/ z/ .[gg'].[cc']/ | %37
 z/ .[dd'].[gg']/ z/ .[bb'].[gg']/ z/ .[cc'].[dd']/ z/ .[gg'].[cc']/ | %38
 z/ .d.g/ z/ .b.g/ z/ .c.d/ z/ .g.c/ | z/ .d.g/ z/ .b.g/ z/ .c.d/ z/ .g.c/ | %40
 z/ .d.g/ z/ .b.g/ z/ .c.d/ z/ .g.c/ | z/ .d.g/ z/ .b.g/ z/ .c.d/ z/ .g.c/ | %42
 z/ .d.g/ z/ .b.g/ z/ .c.d/ z/ .g.c/ | z/ .d.g/ z/ .b.g/ z/ .c.d/ z/ .g.c/ | %44
 z/ .d.g/ z/ .b.g/ z/ .c.d/ z/ .g.c/ | z/ .d.g/ z/ .b.g/ z/ .c.d/ z/ .g.c/ | %46
 z/ .d.g/ z/ .b.g/ z/ .c.d/ z/ .g.c/ | z/ .d.g/ z/ .b.g/ z/ .c.d/ z/ .g.c/ | %48
 z/ .d.g/ z/ .b.g/ z/ .c.d/ z/ .g.c/ | z/ .d.g/ z/ .b.g/ z/ .c.d/ z/ .g.c/ | %50
 z/ .d.g/ z/ .b.g/ z/ .c.d/ z/ .g.c/ | z/ .d.g/ z/ .b.g/ z/ .c.d/ z/ .g.c/ | %52
 z/ .d.g/ z/ .b.g/ z/ .c.d/ z/ .g.c/ | z/ .d.g/ z/ .b.g/ z/ .c.d/ z/ .g.c/ | %54
 z/ .d.g/ z/ .b.g/ z/ .c.d/ z/ .g.c/ | z/ .d.g/ z/ .b.g/ z/ .c.d/ z/ .g.c/ | %56
 z/ .d.g/ z/ .b.g/ z/ .c.d/ z/ .g.c/ | z/ .d.g/ z/ .b.g/ z/ .c.d/ z/ .g.c/ | %58
 z/ .d.g/ z/ .b.g/ z/ .c.d/ z/ .g.c/ | z/ .d.g/ z/ .b.g/ z/ .c.d/ z/ .g.c/ | %60
 z/ .d.g/ z/ .b.g/ z/ .c.d/ z/ .g.c/ | z/ .d.g/ z/ .b.g/ z/ .c.d/ z/ .g.c/ | %62
 z/ .d.g/ z/ .b.g/ z/ .c.d/ z/ .g.c/ | z/ .d.g/ z/ .b.g/ z/ .c.d/ z/ .g.c/ | %64
 z/ .d.g/ z/ .b.g/ z/ .c.d/ z/ .g.c/ | z/ .d.g/ z/ .b.g/ z/ .c.d/ z/ .g.c/ | %66
 z/ .d.g/ z/ .b.g/ z/ .c.d/ z/ .g.c/ | z/ .d.g/ z/ .b.g/ z/ .c.d/ z/ .g.c/ | %68
 z/ .d.g/ z/ .b.g/ z/ .c.d/ z/ .g.c/ | z/ .d.g/ z/ .b.g/ z/ .c.d/ z/ .g.c/ | %70
 z/ .d.g/ z/ .b.g/ z/ .c.d/ z/ .g.c/ | z/ .d.g/ z/ .b.g/ z/ .c.d/ z/ .g.c/ | %72
 z/ .d.g/ z/ .b.g/ z/ .c.d/ z/ .g.c/ | z/ .d.g/ z/ .b.g/ z/ .c.d/ z/ .g.c/ | %74
 z/ .d.g/ z/ .b.g/ z/ .c.d/ z/ .g.c/ | z/ .d.g/ z/ .b.g/ z/ .c.d/ z/ .g.c/ | %76
 z/ .d.g/ z/ .b.g/ z/ .c.d/ z/ .g.c/ | z/ .d.g/ z/ .b.g/ z/ .c.d/ z/ .g.c/ | z8 |] %79
V:4
 z8 | z8 | z8 | z8 | z8 | z8 | [C,E,G,]8- | [C,E,G,]8 | z8 | z8 |!ped! [A,,E,A,]8- | [A,,E,A,]8 | %12
[K:treble] B8 | c4 d4!ped-up! |[K:bass]!ped! [F,,C,F,A,]8- | [F,,C,F,A,]8 |[K:treble] B8 | %17
 c4 d4!ped-up! |[K:bass]!ped! [A,,E,A,]8- | [A,,E,A,]8 |[K:treble] B8 | c4 d4!ped-up! | %22
[K:bass]!ped! [G,,C,E,G,]8- | [G,,C,E,G,]8 | z8 | z8!ped-up! |!ped! [A,,E,A,]8- | [A,,E,A,]8 | %28
[K:treble] B8 | c4 d4!ped-up! |[K:bass]!ped! [F,,C,F,A,]8- | [F,,C,F,A,]8 |[K:treble] B8 | %33
 c4 d4!ped-up! |[K:bass]!ped! [A,,E,A,B,]8- | [A,,E,A,B,]8 | G8 | C4 D4!ped-up! | z8 | z8 | z8 | %41
 z8 |!ped! [C,E,G,C]8- | [C,E,G,C]8 | z8 | z8!ped-up! |!ped! [A,,E,A,]8- | [A,,E,A,]8 | z8 | %49
 z8!ped-up! |!ped! [C,F,A,]4 A,4 | G,4 F,4 | E,8 | z8!ped-up! |!ped! [A,,E,A,B,]4 A,4 | B,4 D4 | %56
 B,8 | z8!ped-up! |!ped! [C,E,G,C]8- | [C,E,G,C]8 | z8 | z8!ped-up! |!ped! [A,,E,A,]4 G,4 | %63
 A,4 G,4 | E,8 | z8!ped-up! |!ped! [C,F,A,]4 A,4 | G,4 F,4 | E,4 z4 | z8!ped-up! | %70
!ped! [A,,E,A,B,]4 A,4 | B,4 D4 | B,8 | z8!ped-up! | z8 | z8 | z8 | %77
[K:treble] z2 z z/ b/ z/ .bc'/ z/ .d'd'/ | .e'8 |] %79
V:5
 z8 | z8 | z8 | z8 | z8 | z8 | z8 | z8 | z8 | z8 | z8 | z8 | z8 | z8 | z8 | z8 | z8 | z8 | z8 | %19
 z8 | z8 | z8 | z8 | z8 | z8 | z8 | z8 | z8 | z8 | z8 | z8 | z8 | z8 | z8 | z8 | z8 | z8 | z8 | %38
 z8 | z8 | z8 | z8 | z2 A2 G4 | B2 d2 G2 g2 | e8 | z8 | z2 A2 G4 | B2 d2 G2 g2 | [Be]8 | c4 d4 | %50
 z2 A2 G4 | B2 d2 G2 g2 | [Be]8 | c4 d4 | B4 E4 | G4 c2 g2 | e6 b2- | b4 a4 | z2 A2 G4 | %59
 B2 d2 G2 g2 | e8 | z8 | z2 A2 G4 | B2 d2 G2 g2 | [Be]8 | c4 d4 | z2 A2 G4 | B2 d2 G2 g2 | [Be]8 | %69
 c4 d4 | B4 E4 | G4 c2 g2 | e6 b2- | b4 a4 | z8 | z8 | z8 | z8 | z8 |] %79

